images/logo.svg

<svg width="80" height="54" viewBox="0 0 80 54" fill="none" xmlns="http://www.w3.org/2000/svg">
<path d="M2.013 42.246V44.6H4.873V45.568H2.013V47.977H5.203V49H0.759V41.234H5.203V42.246H2.013ZM9.80813 42.84C10.5121 42.84 11.0768 43.0673 11.5021 43.522C11.9275 43.9767 12.1401 44.6257 12.1401 45.469V49H10.8861V45.601C10.8861 45.0583 10.7468 44.6403 10.4681 44.347C10.1895 44.0463 9.80813 43.896 9.32413 43.896C8.82547 43.896 8.4258 44.0573 8.12513 44.38C7.82447 44.6953 7.67413 45.161 7.67413 45.777V49H6.42013V42.939H7.67413V44.27C7.83547 43.8153 8.1068 43.4633 8.48813 43.214C8.86947 42.9647 9.30947 42.84 9.80813 42.84ZM16.0377 42.862C16.5877 42.862 17.057 42.9977 17.4457 43.269C17.8343 43.5403 18.1093 43.8997 18.2707 44.347V42.939H19.5247V49.066C19.5247 49.6307 19.4073 50.1293 19.1727 50.562C18.9453 51.002 18.6153 51.3467 18.1827 51.596C17.75 51.8453 17.2367 51.97 16.6427 51.97C15.792 51.97 15.1027 51.7683 14.5747 51.365C14.054 50.9617 13.7277 50.4153 13.5957 49.726H14.8387C14.9413 50.0853 15.1393 50.364 15.4327 50.562C15.726 50.7673 16.1 50.87 16.5547 50.87C17.0533 50.87 17.464 50.716 17.7867 50.408C18.1093 50.1 18.2707 49.6527 18.2707 49.066V47.592C18.1093 48.0393 17.8343 48.3987 17.4457 48.67C17.057 48.9413 16.5877 49.077 16.0377 49.077C15.5097 49.077 15.0367 48.9523 14.6187 48.703C14.208 48.4537 13.8853 48.0943 13.6507 47.625C13.416 47.1557 13.2987 46.602 13.2987 45.964C13.2987 45.3333 13.416 44.7833 13.6507 44.314C13.8853 43.8447 14.208 43.4853 14.6187 43.236C15.0367 42.9867 15.5097 42.862 16.0377 42.862ZM16.4227 43.962C15.8653 43.962 15.418 44.1417 15.0807 44.501C14.7507 44.853 14.5857 45.3407 14.5857 45.964C14.5857 46.5873 14.7507 47.0787 15.0807 47.438C15.418 47.79 15.8653 47.966 16.4227 47.966C16.7747 47.966 17.09 47.8853 17.3687 47.724C17.6473 47.5553 17.8673 47.3207 18.0287 47.02C18.19 46.7193 18.2707 46.3673 18.2707 45.964C18.2707 45.568 18.19 45.2197 18.0287 44.919C17.8673 44.611 17.6473 44.3763 17.3687 44.215C17.09 44.0463 16.7747 43.962 16.4227 43.962ZM20.8535 41.179C20.8535 40.9663 20.9268 40.7903 21.0735 40.651C21.2202 40.5117 21.4145 40.442 21.6565 40.442C21.8985 40.442 22.0928 40.5117 22.2395 40.651C22.3935 40.7903 22.4705 40.9663 22.4705 41.179C22.4705 41.3917 22.3935 41.564 22.2395 41.696C22.0928 41.828 21.8985 41.894 21.6565 41.894C21.4145 41.894 21.2202 41.828 21.0735 41.696C20.9268 41.564 20.8535 41.3917 20.8535 41.179ZM22.2835 42.939V49H21.0295V42.939H22.2835ZM27.189 42.84C27.893 42.84 28.4577 43.0673 28.883 43.522C29.3083 43.9767 29.521 44.6257 29.521 45.469V49H28.267V45.601C28.267 45.0583 28.1277 44.6403 27.849 44.347C27.5703 44.0463 27.189 43.896 26.705 43.896C26.2063 43.896 25.8067 44.0573 25.506 44.38C25.2053 44.6953 25.055 45.161 25.055 45.777V49H23.801V42.939H25.055V44.27C25.2163 43.8153 25.4877 43.4633 25.869 43.214C26.2503 42.9647 26.6903 42.84 27.189 42.84ZM36.6195 45.678C36.6195 45.8833 36.6048 46.063 36.5755 46.217H31.9115C31.9335 46.8403 32.1058 47.3023 32.4285 47.603C32.7512 47.9037 33.1508 48.054 33.6275 48.054C34.0455 48.054 34.3975 47.9477 34.6835 47.735C34.9768 47.5223 35.1565 47.24 35.2225 46.888H36.5645C36.4838 47.3133 36.3152 47.691 36.0585 48.021C35.8018 48.351 35.4682 48.6113 35.0575 48.802C34.6468 48.9853 34.1885 49.077 33.6825 49.077C33.0958 49.077 32.5752 48.9523 32.1205 48.703C31.6732 48.4537 31.3212 48.0943 31.0645 47.625C30.8078 47.1557 30.6795 46.602 30.6795 45.964C30.6795 45.3333 30.8078 44.7833 31.0645 44.314C31.3212 43.8447 31.6732 43.4853 32.1205 43.236C32.5752 42.9867 33.0958 42.862 33.6825 42.862C34.2765 42.862 34.7935 42.9867 35.2335 43.236C35.6808 43.478 36.0218 43.8153 36.2565 44.248C36.4985 44.6733 36.6195 45.15 36.6195 45.678ZM35.3545 45.645C35.3692 45.249 35.2995 44.919 35.1455 44.655C34.9988 44.3837 34.7935 44.1857 34.5295 44.061C34.2728 43.929 33.9905 43.863 33.6825 43.863C33.1912 43.863 32.7805 44.0133 32.4505 44.314C32.1205 44.6147 31.9408 45.0583 31.9115 45.645H35.3545ZM43.4623 45.678C43.4623 45.8833 43.4476 46.063 43.4183 46.217H38.7543C38.7763 46.8403 38.9486 47.3023 39.2713 47.603C39.594 47.9037 39.9936 48.054 40.4703 48.054C40.8883 48.054 41.2403 47.9477 41.5263 47.735C41.8196 47.5223 41.9993 47.24 42.0653 46.888H43.4073C43.3266 47.3133 43.158 47.691 42.9013 48.021C42.6446 48.351 42.311 48.6113 41.9003 48.802C41.4896 48.9853 41.0313 49.077 40.5253 49.077C39.9386 49.077 39.418 48.9523 38.9633 48.703C38.516 48.4537 38.164 48.0943 37.9073 47.625C37.6506 47.1557 37.5223 46.602 37.5223 45.964C37.5223 45.3333 37.6506 44.7833 37.9073 44.314C38.164 43.8447 38.516 43.4853 38.9633 43.236C39.418 42.9867 39.9386 42.862 40.5253 42.862C41.1193 42.862 41.6363 42.9867 42.0763 43.236C42.5236 43.478 42.8646 43.8153 43.0993 44.248C43.3413 44.6733 43.4623 45.15 43.4623 45.678ZM42.1973 45.645C42.212 45.249 42.1423 44.919 41.9883 44.655C41.8416 44.3837 41.6363 44.1857 41.3723 44.061C41.1156 43.929 40.8333 43.863 40.5253 43.863C40.034 43.863 39.6233 44.0133 39.2933 44.314C38.9633 44.6147 38.7836 45.0583 38.7543 45.645H42.1973ZM45.9271 44.127C46.1324 43.731 46.4257 43.4193 46.8071 43.192C47.1884 42.9573 47.6284 42.84 48.1271 42.84V44.204H47.7531C47.2031 44.204 46.7594 44.3397 46.4221 44.611C46.0921 44.875 45.9271 45.315 45.9271 45.931V49H44.6731V42.939H45.9271V44.127ZM51.0576 42.862C51.769 42.862 52.3373 43.0453 52.7626 43.412C53.1953 43.7713 53.4593 44.2553 53.5546 44.864H52.3666C52.3153 44.534 52.1723 44.27 51.9376 44.072C51.7103 43.8667 51.406 43.764 51.0246 43.764C50.7093 43.764 50.4636 43.841 50.2876 43.995C50.119 44.1417 50.0346 44.3433 50.0346 44.6C50.0346 44.7907 50.097 44.9447 50.2216 45.062C50.3463 45.1793 50.5003 45.271 50.6836 45.337C50.8743 45.403 51.142 45.4763 51.4866 45.557C51.9413 45.6597 52.308 45.766 52.5866 45.876C52.8726 45.986 53.1146 46.162 53.3126 46.404C53.518 46.6387 53.6206 46.9613 53.6206 47.372C53.6206 47.878 53.4263 48.2887 53.0376 48.604C52.6563 48.9193 52.1393 49.077 51.4866 49.077C50.7313 49.077 50.119 48.901 49.6496 48.549C49.1876 48.197 48.909 47.7057 48.8136 47.075H50.0346C50.0713 47.405 50.218 47.6727 50.4746 47.878C50.7313 48.0833 51.0686 48.186 51.4866 48.186C51.7873 48.186 52.022 48.109 52.1906 47.955C52.3666 47.7937 52.4546 47.592 52.4546 47.35C52.4546 47.1373 52.3886 46.9687 52.2566 46.844C52.1246 46.7193 51.9596 46.624 51.7616 46.558C51.5636 46.4847 51.2923 46.4113 50.9476 46.338C50.5076 46.2353 50.1483 46.1327 49.8696 46.03C49.5983 45.9273 49.3636 45.7623 49.1656 45.535C48.975 45.3003 48.8796 44.985 48.8796 44.589C48.8796 44.0757 49.0703 43.6613 49.4516 43.346C49.8403 43.0233 50.3756 42.862 51.0576 42.862Z" fill="#F37821"/>
<path d="M63.93 41.234V49H62.665V45.513H59.013V49H57.759V41.234H59.013V44.49H62.665V41.234H63.93ZM71.0384 42.939V49H69.7734V47.68C69.6194 48.1273 69.3517 48.4757 68.9704 48.725C68.5891 48.967 68.1454 49.088 67.6394 49.088C66.9354 49.088 66.3707 48.8607 65.9454 48.406C65.5201 47.9513 65.3074 47.3023 65.3074 46.459V42.939H66.5614V46.327C66.5614 46.877 66.7007 47.3023 66.9794 47.603C67.2581 47.8963 67.6394 48.043 68.1234 48.043C68.6221 48.043 69.0217 47.8817 69.3224 47.559C69.6231 47.2363 69.7734 46.767 69.7734 46.151V42.939H71.0384ZM76.0163 42.862C76.5443 42.862 77.0136 42.9867 77.4243 43.236C77.8423 43.4853 78.1686 43.8447 78.4033 44.314C78.6379 44.7833 78.7553 45.3333 78.7553 45.964C78.7553 46.602 78.6379 47.1557 78.4033 47.625C78.1686 48.0943 77.8423 48.4537 77.4243 48.703C77.0136 48.9523 76.5443 49.077 76.0163 49.077C75.4663 49.077 74.9969 48.9413 74.6082 48.67C74.2196 48.3987 73.9483 48.0393 73.7943 47.592V49H72.5403V40.86H73.7943V44.347C73.9483 43.8997 74.2196 43.5403 74.6082 43.269C74.9969 42.9977 75.4663 42.862 76.0163 42.862ZM75.6313 43.962C75.2793 43.962 74.9639 44.0463 74.6852 44.215C74.4066 44.3763 74.1866 44.611 74.0253 44.919C73.8639 45.2197 73.7833 45.568 73.7833 45.964C73.7833 46.3673 73.8639 46.7193 74.0253 47.02C74.1866 47.3207 74.4066 47.5553 74.6852 47.724C74.9639 47.8853 75.2793 47.966 75.6313 47.966C76.1886 47.966 76.6359 47.79 76.9733 47.438C77.3106 47.0787 77.4793 46.5873 77.4793 45.964C77.4793 45.348 77.3106 44.8603 76.9733 44.501C76.6359 44.1417 76.1886 43.962 75.6313 43.962Z" fill="white"/>
<path fill-rule="evenodd" clip-rule="evenodd" d="M36.3145 26.5972C36.0374 26.7718 35.5551 26.9499 35.273 27.1017C34.9248 27.2892 34.5659 27.5407 34.2972 27.7377C33.973 27.9754 33.6972 28.2201 33.4325 28.4853C33.2458 28.6723 32.8281 29.1146 32.707 29.3566L32.0959 29.1005C32.3487 28.755 32.8682 28.6318 33.3669 27.479C34.3167 25.2834 32.7717 22.4996 30.0666 22.4686C28.3246 22.4487 27.0747 23.6147 26.6152 24.8933C26.1983 26.0531 26.4624 27.4509 27.2179 28.3717C27.4821 28.6937 27.8537 28.9542 27.9575 29.083L27.165 29.4683C27.2934 29.7547 27.9665 30.4031 28.1947 30.6183C33.0087 35.1604 40.1664 36.3455 46.2241 33.3505C47.2027 32.8667 48.1234 32.2488 48.8996 31.6584C49.3901 31.2856 50.8375 29.9756 51.1386 29.5106L50.3272 29.0988L50.6898 28.7478C53.1719 26.4843 51.4782 22.417 48.2046 22.4688C46.4586 22.4963 45.2501 23.6567 44.8232 24.9618C43.9875 27.5171 45.984 28.8152 46.1814 29.0829L45.7128 29.312C45.6194 29.1133 45.1538 28.5937 45.0067 28.4516C44.3391 27.8064 43.0524 26.8717 42.1283 26.6399C42.2371 26.4817 42.1294 26.6193 42.2453 26.4974L42.7002 26.1295C44.0555 25.0157 44.7369 22.6066 44.116 20.7451C42.5314 15.9948 35.9296 16.074 34.3649 20.6853C33.6775 22.7109 34.3676 25.05 36.0303 26.3427C36.0792 26.3808 36.1293 26.4196 36.178 26.4632L36.3144 26.5972H36.3145Z" fill="white"/>
<path fill-rule="evenodd" clip-rule="evenodd" d="M37.3255 0.0765357L36.3855 3.41334C35.8908 3.50065 35.3765 3.60842 34.8935 3.75316C34.3803 3.90688 34.4627 3.9847 33.8371 3.27944L32.0829 1.39982C31.2062 1.48252 28.7673 3.10787 28.0446 3.53485L28.8905 6.90558L27.3801 8.28083L24.0901 7.27477L22.8275 9.14548C22.5174 9.65828 21.9305 10.6373 21.7536 11.213C22.0629 11.6299 23.5897 13.0546 24.0057 13.5185C24.2063 13.7421 24.1088 13.7878 23.9908 14.1357C23.8258 14.622 23.6969 15.0901 23.5843 15.6102L20.2053 16.3885C20.0261 17.8794 19.9068 19.4552 20.0959 20.9795L23.4148 21.9044L23.629 22.887L26.7581 22.9011C26.535 21.6354 26.2769 21.3485 26.2261 19.678C26.1893 18.4698 26.282 17.3181 26.5474 16.2226C27.0543 14.1307 27.8856 12.5634 28.9856 11.1402C34.0101 4.63898 44.1266 4.5174 49.3045 11.122C51.5439 13.9787 52.5329 17.5663 51.9083 21.2904C51.8165 21.8376 51.6279 22.3963 51.5568 22.8935L54.5886 22.903C54.9207 22.8068 54.3083 22.7451 55.3408 22.5203L57.8672 21.954C58.213 21.826 57.9622 21.95 58.0878 21.8076C58.3457 21.2061 58.3216 18.0572 58.1924 17.282L54.8794 16.372L54.425 14.3746L56.9103 12.0864C56.8041 11.3314 55.1736 8.50699 54.723 8.05176L51.3598 8.8854C51.1584 8.56881 50.2749 7.62825 50.0165 7.46228C50.0448 6.85148 50.9659 4.64032 50.9665 4.09191C50.1733 3.37157 48.3014 2.22545 47.1316 1.74713C46.8021 1.88047 45.1039 3.70833 44.6459 4.09587C44.4948 4.08929 42.9064 3.63413 42.6976 3.55418L41.9194 0.232882C40.7366 -0.11564 38.6258 0.0129492 37.3256 0.0766065L37.3255 0.0765357Z" fill="#F37821"/>
</svg>

<svg width="80" height="54" fill="none" xmlns="http://www.w3.org/2000/svg"><path d="M2.013 42.246V44.6h2.86v.968h-2.86v2.409h3.19V49H.759v-7.766h4.444v1.012h-3.19Zm7.795.594c.704 0 1.269.227 1.694.682.425.455.638 1.104.638 1.947V49h-1.254v-3.399c0-.543-.14-.96-.418-1.254-.278-.3-.66-.451-1.144-.451-.499 0-.898.161-1.199.484-.3.315-.45.781-.45 1.397V49H6.42v-6.061h1.254v1.331c.161-.455.433-.807.814-1.056a2.35 2.35 0 0 1 1.32-.374Zm6.23.022c.55 0 1.019.136 1.408.407.388.271.663.63.825 1.078v-1.408h1.254v6.127c0 .565-.118 1.063-.352 1.496-.228.44-.558.785-.99 1.034-.433.25-.946.374-1.54.374-.851 0-1.54-.202-2.068-.605-.521-.403-.847-.95-.98-1.639h1.244c.102.36.3.638.594.836.293.205.667.308 1.122.308.498 0 .909-.154 1.232-.462.322-.308.484-.755.484-1.342v-1.474a2.191 2.191 0 0 1-.825 1.078c-.389.271-.858.407-1.408.407a2.717 2.717 0 0 1-1.42-.374 2.568 2.568 0 0 1-.967-1.078c-.235-.47-.352-1.023-.352-1.661 0-.63.117-1.18.352-1.65.234-.47.557-.829.968-1.078.418-.25.89-.374 1.419-.374Zm.385 1.1c-.558 0-1.005.18-1.342.539-.33.352-.495.84-.495 1.463 0 .623.165 1.115.495 1.474.337.352.784.528 1.342.528.352 0 .667-.08.946-.242.278-.169.498-.403.66-.704.161-.3.242-.653.242-1.056 0-.396-.081-.744-.242-1.045a1.704 1.704 0 0 0-.66-.704 1.79 1.79 0 0 0-.946-.253Zm4.43-2.783c0-.213.074-.389.22-.528.147-.14.341-.209.584-.209.241 0 .436.07.582.209.154.14.232.315.232.528a.648.648 0 0 1-.232.517c-.146.132-.34.198-.582.198-.242 0-.437-.066-.584-.198a.663.663 0 0 1-.22-.517Zm1.43 1.76V49H21.03v-6.061h1.255Zm4.906-.099c.704 0 1.269.227 1.694.682.425.455.638 1.104.638 1.947V49h-1.254v-3.399c0-.543-.14-.96-.418-1.254-.279-.3-.66-.451-1.144-.451-.499 0-.898.161-1.199.484-.3.315-.451.781-.451 1.397V49h-1.254v-6.061h1.254v1.331c.161-.455.433-.807.814-1.056a2.35 2.35 0 0 1 1.32-.374Zm9.43 2.838c0 .205-.014.385-.044.539h-4.664c.022.623.195 1.085.517 1.386.323.3.723.451 1.2.451.417 0 .77-.106 1.056-.319a1.31 1.31 0 0 0 .538-.847h1.343c-.081.425-.25.803-.506 1.133-.257.33-.59.59-1.002.781a3.34 3.34 0 0 1-1.375.275c-.586 0-1.107-.125-1.562-.374a2.67 2.67 0 0 1-1.055-1.078c-.257-.47-.386-1.023-.386-1.661 0-.63.129-1.18.386-1.65a2.67 2.67 0 0 1 1.055-1.078c.455-.25.976-.374 1.563-.374.593 0 1.11.125 1.55.374.448.242.789.58 1.024 1.012.242.425.363.902.363 1.43Zm-1.264-.033c.014-.396-.055-.726-.21-.99a1.34 1.34 0 0 0-.616-.594 1.825 1.825 0 0 0-.847-.198c-.49 0-.901.15-1.232.451-.33.3-.51.744-.539 1.331h3.444Zm8.107.033c0 .205-.014.385-.044.539h-4.664c.022.623.195 1.085.517 1.386.323.3.723.451 1.2.451.417 0 .77-.106 1.055-.319a1.31 1.31 0 0 0 .54-.847h1.341c-.08.425-.249.803-.506 1.133-.256.33-.59.59-1 .781-.411.183-.87.275-1.376.275-.586 0-1.107-.125-1.562-.374a2.67 2.67 0 0 1-1.056-1.078c-.256-.47-.385-1.023-.385-1.661 0-.63.129-1.18.385-1.65a2.67 2.67 0 0 1 1.056-1.078c.455-.25.976-.374 1.562-.374.594 0 1.111.125 1.551.374.448.242.789.58 1.023 1.012.242.425.363.902.363 1.43Zm-1.265-.033c.015-.396-.055-.726-.209-.99a1.34 1.34 0 0 0-.616-.594 1.825 1.825 0 0 0-.847-.198c-.491 0-.902.15-1.232.451-.33.3-.51.744-.539 1.331h3.443Zm3.73-1.518a2.3 2.3 0 0 1 .88-.935 2.467 2.467 0 0 1 1.32-.352v1.364h-.374c-.55 0-.994.136-1.33.407-.33.264-.496.704-.496 1.32V49h-1.254v-6.061h1.254v1.188Zm5.13-1.265c.712 0 1.28.183 1.706.55.432.36.696.843.792 1.452h-1.188a1.248 1.248 0 0 0-.43-.792c-.227-.205-.531-.308-.912-.308-.316 0-.561.077-.737.231-.169.147-.253.348-.253.605 0 .19.062.345.187.462.124.117.278.209.462.275.19.066.458.14.803.22a7.8 7.8 0 0 1 1.1.319c.286.11.528.286.726.528.205.235.308.557.308.968 0 .506-.195.917-.583 1.232-.382.315-.899.473-1.551.473-.756 0-1.368-.176-1.837-.528-.462-.352-.741-.843-.836-1.474h1.22c.037.33.184.598.44.803.257.205.595.308 1.013.308.3 0 .535-.077.704-.231a.787.787 0 0 0 .264-.605.663.663 0 0 0-.198-.506 1.313 1.313 0 0 0-.495-.286 6.101 6.101 0 0 0-.814-.22 9.32 9.32 0 0 1-1.078-.308 1.74 1.74 0 0 1-.704-.495c-.191-.235-.286-.55-.286-.946 0-.513.19-.928.572-1.243.388-.323.924-.484 1.606-.484Z" fill="#F37821"/><path d="M63.93 41.234V49h-1.265v-3.487h-3.652V49h-1.254v-7.766h1.254v3.256h3.652v-3.256h1.265Zm7.108 1.705V49h-1.265v-1.32a1.98 1.98 0 0 1-.803 1.045c-.38.242-.825.363-1.33.363-.705 0-1.27-.227-1.695-.682-.425-.455-.638-1.104-.638-1.947v-3.52h1.254v3.388c0 .55.14.975.418 1.276.28.293.66.44 1.144.44.5 0 .899-.161 1.2-.484.3-.323.45-.792.45-1.408v-3.212h1.265Zm4.978-.077c.528 0 .998.125 1.408.374.418.25.745.609.98 1.078.234.47.351 1.02.351 1.65 0 .638-.117 1.192-.352 1.661-.234.47-.56.829-.979 1.078-.41.25-.88.374-1.408.374-.55 0-1.02-.136-1.408-.407a2.129 2.129 0 0 1-.814-1.078V49H72.54v-8.14h1.254v3.487c.154-.447.426-.807.814-1.078.389-.271.858-.407 1.408-.407Zm-.385 1.1a1.79 1.79 0 0 0-.946.253 1.704 1.704 0 0 0-.66.704c-.161.3-.242.649-.242 1.045 0 .403.08.755.242 1.056.162.3.382.535.66.704.279.161.594.242.946.242.558 0 1.005-.176 1.342-.528.338-.36.506-.85.506-1.474 0-.616-.168-1.104-.506-1.463-.337-.36-.784-.539-1.342-.539Z" fill="#fff"/><path fill-rule="evenodd" clip-rule="evenodd" d="M36.315 26.597c-.278.175-.76.353-1.042.505a8.8 8.8 0 0 0-.976.636c-.324.237-.6.482-.864.747-.187.187-.605.63-.726.872l-.611-.256c.253-.346.772-.47 1.27-1.622.95-2.196-.594-4.98-3.3-5.01-1.741-.02-2.991 1.146-3.45 2.424-.418 1.16-.154 2.558.602 3.479.264.322.636.582.74.711l-.793.385c.128.287.802.935 1.03 1.15 4.814 4.542 11.971 5.728 18.03 2.732.978-.483 1.898-1.101 2.675-1.692.49-.372 1.938-1.682 2.239-2.147l-.812-.412.363-.351c2.482-2.264.788-6.331-2.485-6.28-1.746.028-2.955 1.189-3.382 2.494-.836 2.555 1.161 3.853 1.358 4.12l-.468.23c-.094-.199-.56-.718-.706-.86-.668-.646-1.955-1.58-2.879-1.812.11-.158.001-.02.117-.143l.455-.367c1.355-1.114 2.037-3.523 1.416-5.385-1.585-4.75-8.186-4.671-9.751-.06-.688 2.026.003 4.365 1.665 5.658.05.038.1.077.148.12l.136.134Z" fill="#fff"/><path fill-rule="evenodd" clip-rule="evenodd" d="m37.325.077-.94 3.336c-.494.088-1.008.195-1.491.34-.514.154-.431.232-1.057-.474L32.083 1.4c-.877.084-3.316 1.709-4.038 2.136l.845 3.37-1.51 1.376-3.29-1.006-1.262 1.87c-.31.513-.898 1.492-1.074 2.068.309.417 1.836 1.842 2.252 2.306.2.223.103.269-.015.617-.165.486-.294.954-.407 1.474l-3.379.779c-.179 1.49-.298 3.066-.11 4.59l3.32.925.214.983 3.13.014c-.224-1.266-.482-1.552-.533-3.223-.037-1.208.056-2.36.321-3.455.507-2.092 1.339-3.66 2.439-5.083 5.024-6.501 15.14-6.623 20.318-.018 2.24 2.857 3.229 6.444 2.604 10.168-.092.548-.28 1.106-.351 1.604l3.032.009c.332-.096-.28-.158.752-.383l2.526-.566c.346-.128.095-.004.22-.146.259-.602.235-3.75.105-4.526l-3.313-.91-.454-1.997 2.485-2.289c-.106-.755-1.736-3.579-2.187-4.034l-3.363.833c-.202-.316-1.085-1.257-1.343-1.423.028-.61.949-2.822.95-3.37-.794-.72-2.666-1.867-3.835-2.345-.33.133-2.028 1.961-2.486 2.349-.151-.007-1.74-.462-1.948-.542L41.919.233c-1.182-.349-3.293-.22-4.593-.156Z" fill="#F37821"/></svg>
